X:122
T:Comb Your Hair and Curl It
M:9/8
L:1/8
K:D
"Em"B2 E E2 F G2 A|B2 e e2 c "D"dBA|"Em"B2 E E2 F G2 A|B2 G A2 G "D"FED|
"Em"B2 E E2 F G2 A|B2 e e2 c "D"dBA|"Em"B2 E E2 F G2 A|BAG A2 G "D"FED:|
"Em"g2 e efe e2 f|g2 e e2 g "D"afd|"Em"g2 e efe edc|"D"d2 B A2 G FEE|
"Em"g2 e efe e2 f|gfg e2 g "D"afd|"Em"gfg "D"agf "Em"g2 e|"D"d2 B ABG FE"Em"D:|
